Origami/64x64/apps/gnome-taquin.svg

<svg width="64" height="64" version="1" xmlns="http://www.w3.org/2000/svg">
 <path d="m6 19v2c0 1.108 0.892 2 2 2h12c1.108 0 2-0.892 2-2v-2c0 1.108-0.892 2-2 2h-12c-1.108 0-2-0.892-2-2zm18 0v2c0 1.108 0.892 2 2 2h12c1.108 0 2-0.892 2-2v-2c0 1.108-0.892 2-2 2h-12c-1.108 0-2-0.892-2-2zm18 0v2c0 1.108 0.892 2 2 2h12c1.108 0 2-0.892 2-2v-2c0 1.108-0.892 2-2 2h-12c-1.108 0-2-0.892-2-2zm-36 18v2c0 1.108 0.892 2 2 2h12c1.108 0 2-0.892 2-2v-2c0 1.108-0.892 2-2 2h-12c-1.108 0-2-0.892-2-2zm18 0v2c0 1.108 0.892 2 2 2h12c1.108 0 2-0.892 2-2v-2c0 1.108-0.892 2-2 2h-12c-1.108 0-2-0.892-2-2zm18 0v2c0 1.108 0.892 2 2 2h12c1.108 0 2-0.892 2-2v-2c0 1.108-0.892 2-2 2h-12c-1.108 0-2-0.892-2-2zm-36 18v2c0 1.108 0.892 2 2 2h12c1.108 0 2-0.892 2-2v-2c0 1.108-0.892 2-2 2h-12c-1.108 0-2-0.892-2-2zm18 0v2c0 1.108 0.892 2 2 2h12c1.108 0 2-0.892 2-2v-2c0 1.108-0.892 2-2 2h-12c-1.108 0-2-0.892-2-2zm18 0v2c0 1.108 0.892 2 2 2h12c1.108 0 2-0.892 2-2v-2c0 1.108-0.892 2-2 2h-12c-1.108 0-2-0.892-2-2z" style="opacity:.2"/>
 <path d="m8 6c-1.108 0-2 0.892-2 2v12c0 1.108 0.892 2 2 2h12c1.108 0 2-0.892 2-2v-12c0-1.108-0.892-2-2-2h-12zm36 0c-1.108 0-2 0.892-2 2v12c0 1.108 0.892 2 2 2h12c1.108 0 2-0.892 2-2v-12c0-1.108-0.892-2-2-2h-12zm-18 18c-1.108 0-2 0.892-2 2v12c0 1.108 0.892 2 2 2h12c1.108 0 2-0.892 2-2v-12c0-1.108-0.892-2-2-2h-12zm-18 18c-1.108 0-2 0.892-2 2v12c0 1.108 0.892 2 2 2h12c1.108 0 2-0.892 2-2v-12c0-1.108-0.892-2-2-2h-12zm36 0c-1.108 0-2 0.892-2 2v12c0 1.108 0.892 2 2 2h12c1.108 0 2-0.892 2-2v-12c0-1.108-0.892-2-2-2h-12z" style="fill:#cccccc"/>
 <rect x="24" y="6" width="16" height="16" rx="2" ry="2" style="fill:#adadad"/>
 <rect x="6" y="24" width="16" height="16" rx="2" ry="2" style="fill:#adadad"/>
 <rect x="42" y="24" width="16" height="16" rx="2" ry="2" style="fill:#adadad"/>
 <rect x="24" y="42" width="16" height="16" rx="2" ry="2" style="fill:#adadad"/>
 <path d="m8 6c-1.108 0-2 0.892-2 2v1c0-1.108 0.892-2 2-2h12c1.108 0 2 0.892 2 2v-1c0-1.108-0.892-2-2-2h-12zm18 0c-1.108 0-2 0.892-2 2v1c0-1.108 0.892-2 2-2h12c1.108 0 2 0.892 2 2v-1c0-1.108-0.892-2-2-2h-12zm18 0c-1.108 0-2 0.892-2 2v1c0-1.108 0.892-2 2-2h12c1.108 0 2 0.892 2 2v-1c0-1.108-0.892-2-2-2h-12zm-36 18c-1.108 0-2 0.892-2 2v1c0-1.108 0.892-2 2-2h12c1.108 0 2 0.892 2 2v-1c0-1.108-0.892-2-2-2h-12zm18 0c-1.108 0-2 0.892-2 2v1c0-1.108 0.892-2 2-2h12c1.108 0 2 0.892 2 2v-1c0-1.108-0.892-2-2-2h-12zm18 0c-1.108 0-2 0.892-2 2v1c0-1.108 0.892-2 2-2h12c1.108 0 2 0.892 2 2v-1c0-1.108-0.892-2-2-2h-12zm-36 18c-1.108 0-2 0.892-2 2v1c0-1.108 0.892-2 2-2h12c1.108 0 2 0.892 2 2v-1c0-1.108-0.892-2-2-2h-12zm18 0c-1.108 0-2 0.892-2 2v1c0-1.108 0.892-2 2-2h12c1.108 0 2 0.892 2 2v-1c0-1.108-0.892-2-2-2h-12zm18 0c-1.108 0-2 0.892-2 2v1c0-1.108 0.892-2 2-2h12c1.108 0 2 0.892 2 2v-1c0-1.108-0.892-2-2-2h-12z" style="fill:#ffffff;opacity:.2"/>
</svg>

<svg xmlns="http://www.w3.org/2000/svg" width="64" height="64" version="1">
 <path style="opacity:0.2" d="m 6,19 0,2 c 0,1.108 0.892,2 2,2 l 12,0 c 1.108,0 2,-0.892 2,-2 l 0,-2 c 0,1.108 -0.892,2 -2,2 L 8,21 C 6.892,21 6,20.108 6,19 Z m 18,0 0,2 c 0,1.108 0.892,2 2,2 l 12,0 c 1.108,0 2,-0.892 2,-2 l 0,-2 c 0,1.108 -0.892,2 -2,2 l -12,0 c -1.108,0 -2,-0.892 -2,-2 z m 18,0 0,2 c 0,1.108 0.892,2 2,2 l 12,0 c 1.108,0 2,-0.892 2,-2 l 0,-2 c 0,1.108 -0.892,2 -2,2 l -12,0 c -1.108,0 -2,-0.892 -2,-2 z M 6,37 6,39 c 0,1.108 0.892,2 2,2 l 12,0 c 1.108,0 2,-0.892 2,-2 l 0,-2 c 0,1.108 -0.892,2 -2,2 L 8,39 C 6.892,39 6,38.108 6,37 Z m 18,0 0,2 c 0,1.108 0.892,2 2,2 l 12,0 c 1.108,0 2,-0.892 2,-2 l 0,-2 c 0,1.108 -0.892,2 -2,2 l -12,0 c -1.108,0 -2,-0.892 -2,-2 z m 18,0 0,2 c 0,1.108 0.892,2 2,2 l 12,0 c 1.108,0 2,-0.892 2,-2 l 0,-2 c 0,1.108 -0.892,2 -2,2 l -12,0 c -1.108,0 -2,-0.892 -2,-2 z M 6,55 6,57 c 0,1.108 0.892,2 2,2 l 12,0 c 1.108,0 2,-0.892 2,-2 l 0,-2 c 0,1.108 -0.892,2 -2,2 L 8,57 C 6.892,57 6,56.108 6,55 Z m 18,0 0,2 c 0,1.108 0.892,2 2,2 l 12,0 c 1.108,0 2,-0.892 2,-2 l 0,-2 c 0,1.108 -0.892,2 -2,2 l -12,0 c -1.108,0 -2,-0.892 -2,-2 z m 18,0 0,2 c 0,1.108 0.892,2 2,2 l 12,0 c 1.108,0 2,-0.892 2,-2 l 0,-2 c 0,1.108 -0.892,2 -2,2 l -12,0 c -1.108,0 -2,-0.892 -2,-2 z"/>
 <path style="fill:#cccccc" d="M 8,6 C 6.892,6 6,6.892 6,8 l 0,12 c 0,1.108 0.892,2 2,2 l 12,0 c 1.108,0 2,-0.892 2,-2 L 22,8 C 22,6.892 21.108,6 20,6 L 8,6 Z m 36,0 c -1.108,0 -2,0.892 -2,2 l 0,12 c 0,1.108 0.892,2 2,2 l 12,0 c 1.108,0 2,-0.892 2,-2 L 58,8 C 58,6.892 57.108,6 56,6 L 44,6 Z M 26,24 c -1.108,0 -2,0.892 -2,2 l 0,12 c 0,1.108 0.892,2 2,2 l 12,0 c 1.108,0 2,-0.892 2,-2 l 0,-12 c 0,-1.108 -0.892,-2 -2,-2 L 26,24 Z M 8,42 c -1.108,0 -2,0.892 -2,2 l 0,12 c 0,1.108 0.892,2 2,2 l 12,0 c 1.108,0 2,-0.892 2,-2 l 0,-12 c 0,-1.108 -0.892,-2 -2,-2 L 8,42 Z m 36,0 c -1.108,0 -2,0.892 -2,2 l 0,12 c 0,1.108 0.892,2 2,2 l 12,0 c 1.108,0 2,-0.892 2,-2 l 0,-12 c 0,-1.108 -0.892,-2 -2,-2 l -12,0 z"/>
 <rect style="fill:#adadad" width="16" height="16" x="24" y="6" rx="2" ry="2"/>
 <rect style="fill:#adadad" width="16" height="16" x="6" y="24" rx="2" ry="2"/>
 <rect style="fill:#adadad" width="16" height="16" x="42" y="24" rx="2" ry="2"/>
 <rect style="fill:#adadad" width="16" height="16" x="24" y="42" rx="2" ry="2"/>
 <path style="opacity:0.2;fill:#ffffff" d="M 8 6 C 6.892 6 6 6.892 6 8 L 6 9 C 6 7.892 6.892 7 8 7 L 20 7 C 21.108 7 22 7.892 22 9 L 22 8 C 22 6.892 21.108 6 20 6 L 8 6 z M 26 6 C 24.892 6 24 6.892 24 8 L 24 9 C 24 7.892 24.892 7 26 7 L 38 7 C 39.108 7 40 7.892 40 9 L 40 8 C 40 6.892 39.108 6 38 6 L 26 6 z M 44 6 C 42.892 6 42 6.892 42 8 L 42 9 C 42 7.892 42.892 7 44 7 L 56 7 C 57.108 7 58 7.892 58 9 L 58 8 C 58 6.892 57.108 6 56 6 L 44 6 z M 8 24 C 6.892 24 6 24.892 6 26 L 6 27 C 6 25.892 6.892 25 8 25 L 20 25 C 21.108 25 22 25.892 22 27 L 22 26 C 22 24.892 21.108 24 20 24 L 8 24 z M 26 24 C 24.892 24 24 24.892 24 26 L 24 27 C 24 25.892 24.892 25 26 25 L 38 25 C 39.108 25 40 25.892 40 27 L 40 26 C 40 24.892 39.108 24 38 24 L 26 24 z M 44 24 C 42.892 24 42 24.892 42 26 L 42 27 C 42 25.892 42.892 25 44 25 L 56 25 C 57.108 25 58 25.892 58 27 L 58 26 C 58 24.892 57.108 24 56 24 L 44 24 z M 8 42 C 6.892 42 6 42.892 6 44 L 6 45 C 6 43.892 6.892 43 8 43 L 20 43 C 21.108 43 22 43.892 22 45 L 22 44 C 22 42.892 21.108 42 20 42 L 8 42 z M 26 42 C 24.892 42 24 42.892 24 44 L 24 45 C 24 43.892 24.892 43 26 43 L 38 43 C 39.108 43 40 43.892 40 45 L 40 44 C 40 42.892 39.108 42 38 42 L 26 42 z M 44 42 C 42.892 42 42 42.892 42 44 L 42 45 C 42 43.892 42.892 43 44 43 L 56 43 C 57.108 43 58 43.892 58 45 L 58 44 C 58 42.892 57.108 42 56 42 L 44 42 z"/>
</svg>
